X:1
T:Title
%%score { 1 | 2 }
L:1/8
M:4/4
K:G
V:1 treble nm="Grand Piano"
V:2 treble 
V:1
 z4 z2[Q:1/4=100] D2 | G2 G>A B2 AG | d4 B2 d>e | [Fd]4 [FA]2 [Fd]>[Fe] | d4 B2 D2 | G2 G>A B2 AG | %6
 d4 B2 d>e | [Fd]2 [FA]2 [GB]2 [CDA]2 |[M:3/4] [B,DG]6 |[M:1/4] [B,G]2 | %10
[M:4/4] [CGc]2 [Ge]>[Ge] [DGd]2 [DFc]>[DGB] | [DGB]4 [DFA]2 [DFA]>[DGB] | %12
 [Ac]2 [Fd]>[Ac] [GB]2 [Ac]>[GB] | [FA]6 [FA]2 | B2 c>c d2 c>B | [EA]4 [CE]2 [EA]>[Ec] | %16
 [DB]2 [B,DG]>[DGB] [CFA]2 [A,DF]>[CDA] |[M:3/4] [B,DG]6 |] %18
V:2
 z4 z2 [G,B,]2 | [G,B,D]2 [G,B,D]>[G,CD] [G,DG]2[K:bass] [F,CD][G,B,D] | %2
 [G,B,D]4 [G,DG]2 [G,B,G]>[G,CG] | [D,A,]4 [D,D]2 [D,C]>[D,C] | [G,B,G]4 [G,D]2 [G,B,]2 | %5
 [G,B,D]2 [G,B,D]>[G,CD] [G,DG]2 [G,CD][G,B,D] | [G,B,D]4 [G,DG]2 [G,B,G]>[G,CG] | %7
 [D,A,]2 [D,D]2 [D,D]2 D,2 |[M:3/4] G,,6 |[M:1/4] G,2 |[M:4/4] E,2 [C,C]>[C,C] B,,2 A,,>G,, | %11
 D,4 D,2 D,>C, | [D,D]2 [D,D]>[D,D] [D,D]2 [D,D]>[D,D] | [D,D]6 [D,D]2 | %14
 [G,DG]2 [A,DF]>[A,DF] [B,DG]2 [A,DF]>[G,DG] | [C,C]4 [C,G,]2 [C,G,]>[C,G,] | %16
 [D,G,]2 D,>D, D,2 D,>D, |[M:3/4] G,,6 |] %18

